static/nodeIcons/programmingL/kotlin.svg

<?xml version="1.0" encoding="UTF-8" standalone="no"?>
<svg width="256px" height="264px" viewBox="0 0 256 264" version="1.1" xmlns="http://www.w3.org/2000/svg" xmlns:xlink="http://www.w3.org/1999/xlink" preserveAspectRatio="xMidYMid">
	<g>
		<path d="M0,219.977836 L0,220.93345 C0,244.34599 18.8733742,263.219364 42.2859143,263.219364 C65.6984544,263.219364 84.5718285,244.34599 84.5718285,220.93345 L84.5718285,174.347273 L0,219.977836 L0,219.977836 Z" fill="#4971A9"></path>
		<path d="M255.673376,220.21674 C254.956665,211.138408 251.13421,202.776786 244.683816,196.326393 L244.683816,196.087489 L168.712512,128.955614 L94.8913401,168.61359 L190.213825,253.424322 C197.380929,259.635812 206.459261,262.980461 216.0154,262.980461 L216.0154,262.980461 C217.209917,262.980461 218.404434,262.980461 219.360048,262.741557 C229.871801,261.785943 239.42794,256.768971 246.117237,248.885156 C253.284341,241.001341 256.390086,230.728492 255.673376,220.21674 L255.673376,220.21674 Z" fill="#4971A9"></path>
		<path d="M84.5718285,48.2062409 L84.5718285,43.6670749 L84.5718285,42.7114611 C84.5718285,19.298921 65.4595509,0.425546807 42.2859143,0.425546807 C18.8733742,0.425546807 3.55271368e-14,19.298921 3.55271368e-14,42.7114611 L3.55271368e-14,94.5535141 L84.5718285,48.2062409 L84.5718285,48.2062409 Z" fill="#4971A9"></path>
		<path d="M2.84217094e-14,112.710178 L197.57317,4.96471274 C203.306853,1.85896763 209.757247,0.425546807 216.207641,0.425546807 C220.269,0.425546807 224.330359,1.14225722 228.391718,2.33677457 C249.17632,9.02607174 260.404783,31.2440945 253.715486,52.0286964 C250.848644,60.6292213 245.353864,68.0352289 237.708953,73.0522018 L237.708953,73.2911053 L235.319918,74.7245261 L9.63221596e-14,201.821172 L9.63221596e-14,112.710178 L2.84217094e-14,112.710178 Z" fill="#F58A1F"></path>
	</g>
</svg>

<svg width="256" height="264" viewBox="0 0 256 264" xmlns="http://www.w3.org/2000/svg" preserveAspectRatio="xMidYMid"><path d="M0 219.978v.955c0 23.413 18.873 42.286 42.286 42.286 23.412 0 42.286-18.873 42.286-42.286v-46.586L0 219.977zm255.673.239c-.716-9.079-4.539-17.44-10.99-23.89v-.24l-75.97-67.131-73.822 39.658 95.323 84.81c7.167 6.212 16.245 9.556 25.801 9.556 1.195 0 2.39 0 3.345-.238 10.512-.956 20.068-5.973 26.757-13.857 7.167-7.884 10.273-18.157 9.556-28.668zM84.572 48.206v-5.495C84.572 19.3 65.46.426 42.286.426 18.873.426 0 19.299 0 42.71v51.843l84.572-46.348z" fill="#4971A9"/><path d="M0 112.71L197.573 4.965c5.734-3.106 12.184-4.54 18.635-4.54 4.061 0 8.122.717 12.184 1.912 20.784 6.69 32.013 28.907 25.323 49.692-2.866 8.6-8.361 16.006-16.006 21.023v.24l-2.39 1.433L0 201.82v-89.11z" fill="#F58A1F"/></svg>
